assets/images/logo-mobile.svg

<?xml version="1.0" encoding="UTF-8"?>
<svg width="54px" height="54px" viewBox="0 0 54 54" version="1.1" xmlns="http://www.w3.org/2000/svg" xmlns:xlink="http://www.w3.org/1999/xlink">
    <!-- Generator: Sketch 51.3 (57544) - http://www.bohemiancoding.com/sketch -->
    <title>logo-mobile</title>
    <desc>Created with Sketch.</desc>
    <defs></defs>
    <g id="Page-1" stroke="none" stroke-width="1" fill="none" fill-rule="evenodd">
        <g id="logo-mobile">
            <rect id="Rectangle-6" stroke="#1C3ED3" stroke-width="4" fill-rule="nonzero" x="2" y="2" width="50" height="50"></rect>
            <path d="M17.169,42.126 C15.8389934,41.7619982 14.670005,41.2300035 13.662,40.53 L13.872,42.336 L11.688,42.336 L11.436,33.39 L13.074,33.39 C13.2140007,35.798012 14.0399924,37.6529935 15.552,38.955 C17.0640076,40.2570065 18.9819884,40.908 21.306,40.908 C23.0140085,40.908 24.4489942,40.4390047 25.611,39.501 C26.7730058,38.5629953 27.354,37.2820081 27.354,35.658 C27.354,34.453994 27.0250033,33.4250043 26.367,32.571 C25.7089967,31.7169957 24.8970048,31.0030029 23.931,30.429 C22.9649952,29.8549971 21.6560083,29.1900038 20.004,28.434 C18.1279906,27.5379955 16.6370055,26.7540034 15.531,26.082 C14.4249945,25.4099966 13.4800039,24.5210055 12.696,23.415 C11.9119961,22.3089945 11.52,20.9440081 11.52,19.32 C11.52,18.1999944 11.7789974,17.0800056 12.297,15.96 C12.8150026,14.8399944 13.7109936,13.8880039 14.985,13.104 C16.2590064,12.3199961 17.9459895,11.928 20.046,11.928 C21.3060063,11.928 22.5729936,12.0889984 23.847,12.411 C25.1210064,12.7330016 26.2899947,13.2859961 27.354,14.07 L27.186,12.264 L29.328,12.264 L29.328,21.504 L27.816,21.504 C27.6759993,19.2919889 26.9690064,17.4230076 25.695,15.897 C24.4209936,14.3709924 22.6360115,13.608 20.34,13.608 C18.6599916,13.608 17.3440048,14.0769953 16.392,15.015 C15.4399952,15.9530047 14.964,17.121993 14.964,18.522 C14.964,19.6420056 15.2859968,20.6079959 15.93,21.42 C16.5740032,22.2320041 17.3579954,22.9039973 18.282,23.436 C19.2060046,23.9680027 20.5079916,24.6259961 22.188,25.41 C24.0920095,26.2780043 25.6249942,27.0619965 26.787,27.762 C27.9490058,28.4620035 28.9359959,29.3789943 29.748,30.513 C30.5600041,31.6470057 30.966,33.0399917 30.966,34.692 C30.966,36.2600078 30.5810039,37.645994 29.811,38.85 C29.0409962,40.054006 27.9140074,40.9919966 26.43,41.664 C24.9459926,42.3360034 23.1820102,42.672 21.138,42.672 C19.8219934,42.672 18.4990067,42.4900018 17.169,42.126 Z" id="S" fill="#1C3ED3"></path>
            <path d="M34.402,41.895 C33.9259976,41.3769974 33.688,40.7400038 33.688,39.984 C33.688,39.2279962 33.9329975,38.5840027 34.423,38.052 C34.9130025,37.5199973 35.4939966,37.254 36.166,37.254 C36.8660035,37.254 37.4469977,37.5199973 37.909,38.052 C38.3710023,38.5840027 38.602,39.2279962 38.602,39.984 C38.602,40.7400038 38.3570024,41.3769974 37.867,41.895 C37.3769975,42.4130026 36.7960034,42.672 36.124,42.672 C35.4519966,42.672 34.8780024,42.4130026 34.402,41.895 Z" id="." fill="#1C3ED3"></path>
        </g>
    </g>
</svg>

<svg width="54" height="54" xmlns="http://www.w3.org/2000/svg">
 <!-- Generator: Sketch 51.3 (57544) - http://www.bohemiancoding.com/sketch -->
 <title>logo-mobile</title>
 <desc>Created with Sketch.</desc>

 <g>
  <title>background</title>
  <rect fill="none" id="canvas_background" height="402" width="582" y="-1" x="-1"/>
 </g>
 <g>
  <title>Layer 1</title>
  <g fill-rule="evenodd" fill="none" id="Page-1">
   <g id="logo-mobile">
    <rect height="50" width="50" y="2" x="2" fill-rule="nonzero" stroke-width="4" stroke="#1C3ED3" id="Rectangle-6"/>
    <path fill="#1C3ED3" id="." d="m34.402,41.895c-0.476002,-0.518003 -0.714,-1.154996 -0.714,-1.911c0,-0.756004 0.244997,-1.399997 0.735,-1.932c0.490002,-0.532003 1.070997,-0.798 1.743,-0.798c0.700003,0 1.280998,0.265997 1.743,0.798c0.462002,0.532003 0.693,1.175996 0.693,1.932c0,0.756004 -0.244998,1.392997 -0.735,1.911c-0.490002,0.518003 -1.070997,0.777 -1.743,0.777c-0.672003,0 -1.245998,-0.258997 -1.722,-0.777z"/>
    <text xml:space="preserve" text-anchor="start" font-family="'Simonetta', serif" font-size="40" id="svg_1" y="41.453125" x="4.5" stroke-opacity="null" stroke-width="0" stroke="null" fill="#0000ff">W</text>
   </g>
  </g>
 </g>
</svg>
